src/images/icons/icon-about-instagram.svg

<svg width="24" height="24" fill="none" xmlns="http://www.w3.org/2000/svg"><defs><clipPath id="a"><path fill="#fff" fill-opacity="0" d="M0 0h24v24H0z"/></clipPath></defs><g clip-path="url(#a)"><path d="M7 3c-1.07 0-2.08.42-2.83 1.17S3 5.93 3 7v10c0 1.06.42 2.07 1.17 2.82S5.93 21 7 21h10c1.06 0 2.07-.43 2.82-1.18A3.99 3.99 0 0 0 21 17V7c0-1.07-.43-2.08-1.18-2.83A3.98 3.98 0 0 0 17 3H7Z" stroke="#000" stroke-width="1.5" stroke-linejoin="round"/><path d="M14.82 14.82A3.99 3.99 0 0 0 16 12c0-1.07-.43-2.08-1.18-2.83A3.98 3.98 0 0 0 12 8c-1.07 0-2.08.42-2.83 1.17S8 10.93 8 12c0 1.06.42 2.07 1.17 2.82S10.93 16 12 16c1.06 0 2.07-.43 2.82-1.18Z" stroke="#000" stroke-width="1.5" stroke-linejoin="round"/><path d="M17.5 7.5c.26 0 .51-.11.7-.3.19-.19.3-.44.3-.7a1 1 0 0 0-.3-.71.984.984 0 0 0-.7-.29.99.99 0 0 0-1 1c0 .26.1.51.29.7a1 1 0 0 0 .71.3Z" fill="#000"/></g></svg>

<svg width="24.000000" height="24.000000" viewBox="0 0 24 24" fill="none" xmlns="http://www.w3.org/2000/svg" xmlns:xlink="http://www.w3.org/1999/xlink">
	<desc>
			Created with Pixso.
	</desc>
	<defs>
		<clipPath id="clip246_4775">
			<rect id="icon-instagram" width="24.000000" height="24.000000" fill="white" fill-opacity="0"/>
		</clipPath>
	</defs>
	<g clip-path="url(#clip246_4775)">
		<path id="Vector" d="M7 3C5.93 3 4.92 3.42 4.17 4.17C3.42 4.92 3 5.93 3 7L3 17C3 18.06 3.42 19.07 4.17 19.82C4.92 20.57 5.93 21 7 21L17 21C18.06 21 19.07 20.57 19.82 19.82C20.57 19.07 21 18.06 21 17L21 7C21 5.93 20.57 4.92 19.82 4.17C19.07 3.42 18.06 3 17 3L7 3Z" stroke="#000000" stroke-opacity="1.000000" stroke-width="1.500000" stroke-linejoin="round"/>
		<path id="Vector" d="M14.82 14.82C15.57 14.07 16 13.06 16 12C16 10.93 15.57 9.92 14.82 9.17C14.07 8.42 13.06 8 12 8C10.93 8 9.92 8.42 9.17 9.17C8.42 9.92 8 10.93 8 12C8 13.06 8.42 14.07 9.17 14.82C9.92 15.57 10.93 16 12 16C13.06 16 14.07 15.57 14.82 14.82Z" stroke="#000000" stroke-opacity="1.000000" stroke-width="1.500000" stroke-linejoin="round"/>
		<path id="Vector" d="M17.5 7.5C17.76 7.5 18.01 7.39 18.2 7.2C18.39 7.01 18.5 6.76 18.5 6.5C18.5 6.23 18.39 5.98 18.2 5.79C18.01 5.6 17.76 5.5 17.5 5.5C17.23 5.5 16.98 5.6 16.79 5.79C16.6 5.98 16.5 6.23 16.5 6.5C16.5 6.76 16.6 7.01 16.79 7.2C16.98 7.39 17.23 7.5 17.5 7.5Z" fill="#000000" fill-opacity="1.000000" fill-rule="nonzero"/>
	</g>
</svg>
